Sources/FrostedUI/Resources/Icons.xcassets/checkmarkShield16.imageset/checkmark-shield-16.svg

<svg
  width="16"
  height="16"
  viewBox="0 0 16 16"
  fill="none"
  xmlns="http://www.w3.org/2000/svg"
  data-fui-icon="true"
>
  <path
    d="M7.21451 1.17682C6.03473 2.79802 3.86665 3.67743 2.64603 4.06472C2.12868 4.22887 1.74994 4.69979 1.74994 5.24256V5.96491C1.74994 9.95684 3.9597 13.999 7.76605 15.2019C7.86478 15.2331 7.94399 15.25 7.99991 15.25C8.05583 15.25 8.13504 15.2331 8.23377 15.2019C12.0401 13.999 14.2499 9.95685 14.2499 5.96491V5.24257C14.2499 4.69979 13.8712 4.22887 13.3538 4.06472C12.1332 3.67743 9.9651 2.79802 8.78531 1.17682C8.60019 0.922439 8.31453 0.75 7.99991 0.75C7.6853 0.75 7.39963 0.922439 7.21451 1.17682Z"
    stroke="currentColor"
    stroke-width="1.5"
    stroke-linecap="round"
    stroke-linejoin="round"
  />
  <path
    d="M5.75 8.75L7 10.25L10.25 6.75"
    stroke="currentColor"
    stroke-width="1.5"
    stroke-linecap="round"
    stroke-linejoin="round"
  />
</svg>

<svg xmlns="http://www.w3.org/2000/svg" width="16" height="16" fill="none" data-fui-icon="true" viewBox="0 0 16 16"><path stroke="currentColor" stroke-linecap="round" stroke-linejoin="round" stroke-width="1.5" d="M7.215 1.177c-1.18 1.621-3.348 2.5-4.569 2.888-.517.164-.896.635-.896 1.178v.722c0 3.992 2.21 8.034 6.016 9.237A.9.9 0 0 0 8 15.25a.9.9 0 0 0 .234-.048c3.806-1.203 6.016-5.245 6.016-9.237v-.722c0-.543-.379-1.014-.896-1.178-1.22-.388-3.389-1.267-4.569-2.888C8.6.922 8.315.75 8 .75s-.6.172-.785.427"/><path stroke="currentColor" stroke-linecap="round" stroke-linejoin="round" stroke-width="1.5" d="M5.75 8.75 7 10.25l3.25-3.5"/></svg>
